customWidgets/icons/tag.svg

<svg width="16" height="16" viewBox="0 0 16 16" fill="none" xmlns="http://www.w3.org/2000/svg">
<path d="M4.72878 9.45864L8.05182 6.1356M6.54134 11.2712L8.05182 9.76073M1.35393 8L8 1.35393C8.22661 1.12731 8.53397 1 8.85445 1H13.7916C14.459 1 15 1.54101 15 2.20838V7.14555C15 7.46603 14.8727 7.77339 14.6461 8L8 14.6461C7.5281 15.118 6.763 15.118 6.2911 14.6461L1.35393 9.7089C0.882025 9.237 0.882025 8.4719 1.35393 8Z" stroke="white" stroke-width="1.5" stroke-linecap="round" stroke-linejoin="round"/>
</svg>

<svg xmlns="http://www.w3.org/2000/svg" width="16" height="16" fill="none" viewBox="0 0 16 16">
  <path stroke="#fff" stroke-linecap="round" stroke-linejoin="round" stroke-width="1.5" d="M4.729 9.459l3.323-3.323m-1.51 5.135l1.51-1.51M1.354 8L8 1.354c.227-.227.534-.354.854-.354h4.938C14.459 1 15 1.541 15 2.208v4.938c0 .32-.127.627-.354.854L8 14.646a1.208 1.208 0 01-1.709 0L1.354 9.71a1.208 1.208 0 010-1.709z"/>
</svg>
